round/svg/card_giftcard.svg

<svg xmlns="http://www.w3.org/2000/svg" width="24" height="24"><path fill="none" d="M0 0h24v24H0V0z"/><g fill="currentColor"><path d="M20 6h-2.18c.11-.31.18-.65.18-1a2.996 2.996 0 0 0-5.5-1.65l-.5.67-.5-.68C10.96 2.54 10.05 2 9 2 7.34 2 6 3.34 6 5c0 .35.07.69.18 1H4c-1.11 0-1.99.89-1.99 2L2 19c0 1.11.89 2 2 2h16c1.11 0 2-.89 2-2V8c0-1.11-.89-2-2-2zm-5-2c.55 0 1 .45 1 1s-.45 1-1 1-1-.45-1-1 .45-1 1-1zM9 4c.55 0 1 .45 1 1s-.45 1-1 1-1-.45-1-1 .45-1 1-1zm11 15H4v-2h16v2zm0-5H4V9c0-.55.45-1 1-1h4.08L7.6 10.02a.995.995 0 0 0 .22 1.4c.44.32 1.07.22 1.39-.22L12 7.4l2.79 3.8c.32.44.95.54 1.39.22.45-.32.55-.95.22-1.4L14.92 8H19c.55 0 1 .45 1 1v5z"/></g></svg>

<?xml version="1.0" encoding="utf-8"?>
<!-- Generator: Adobe Illustrator 19.1.0, SVG Export Plug-In . SVG Version: 6.00 Build 0)  -->
<svg version="1.1" xmlns="http://www.w3.org/2000/svg" xmlns:xlink="http://www.w3.org/1999/xlink" x="0px" y="0px" width="24px"
	 height="24px" viewBox="0 0 24 24" enable-background="new 0 0 24 24" xml:space="preserve">
<g id="Header_x2F_BG" display="none">
	<rect x="-446" y="-182" display="inline" fill="#F1F1F2" width="520" height="520"/>
</g>
<g id="Bounding_Boxes">
	<g id="ui_x5F_spec_x5F_header_copy_3">
	</g>
	<path fill="none" d="M0,0h24v24H0V0z"/>
</g>
<g id="Rounded" fill="currentColor">
	<g id="ui_x5F_spec_x5F_header_copy_5">
	</g>
	<path d="M20,6h-2.18C17.93,5.69,18,5.35,18,5c0-1.66-1.34-3-3-3c-1.05,0-1.96,0.54-2.5,1.35L12,4.02l-0.5-0.68
		C10.96,2.54,10.05,2,9,2C7.34,2,6,3.34,6,5c0,0.35,0.07,0.69,0.18,1H4C2.89,6,2.01,6.89,2.01,8L2,19c0,1.11,0.89,2,2,2h16
		c1.11,0,2-0.89,2-2V8C22,6.89,21.11,6,20,6z M15,4c0.55,0,1,0.45,1,1s-0.45,1-1,1s-1-0.45-1-1S14.45,4,15,4z M9,4
		c0.55,0,1,0.45,1,1S9.55,6,9,6S8,5.55,8,5S8.45,4,9,4z M20,19H4v-2h16V19z M20,14H4V9c0-0.55,0.45-1,1-1h4.08L7.6,10.02
		c-0.33,0.45-0.23,1.08,0.22,1.4l0,0c0.44,0.32,1.07,0.22,1.39-0.22L12,7.4l2.79,3.8c0.32,0.44,0.95,0.54,1.39,0.22l0,0
		c0.45-0.32,0.55-0.95,0.22-1.4L14.92,8H19c0.55,0,1,0.45,1,1V14z"/>
</g>
<g id="Sharp" display="none">
	<g id="ui_x5F_spec_x5F_header_copy_4" display="inline">
	</g>
	<path display="inline" d="M22,6h-4.18C17.93,5.69,18,5.35,18,5c0-1.66-1.34-3-3-3c-1.05,0-1.96,0.54-2.5,1.35L12,4.02l-0.5-0.68
		C10.96,2.54,10.05,2,9,2C7.34,2,6,3.34,6,5c0,0.35,0.07,0.69,0.18,1H2.01v15H22V6z M15,4c0.55,0,1,0.45,1,1s-0.45,1-1,1
		s-1-0.45-1-1S14.45,4,15,4z M9,4c0.55,0,1,0.45,1,1S9.55,6,9,6S8,5.55,8,5S8.45,4,9,4z M20,19H4v-2h16V19z M20,14H4V8h5.08L7,10.83
		L8.62,12L12,7.4l3.38,4.6L17,10.83L14.92,8H20V14z"/>
</g>
<g id="Outline" display="none">
	<g id="ui_x5F_spec_x5F_header" display="inline">
	</g>
	<path display="inline" d="M20,6h-2.18C17.93,5.69,18,5.35,18,5c0-1.66-1.34-3-3-3c-1.05,0-1.96,0.54-2.5,1.35L12,4.02l-0.5-0.68
		C10.96,2.54,10.05,2,9,2C7.34,2,6,3.34,6,5c0,0.35,0.07,0.69,0.18,1H4C2.89,6,2.01,6.89,2.01,8L2,19c0,1.11,0.89,2,2,2h16
		c1.11,0,2-0.89,2-2V8C22,6.89,21.11,6,20,6z M15,4c0.55,0,1,0.45,1,1s-0.45,1-1,1s-1-0.45-1-1S14.45,4,15,4z M9,4
		c0.55,0,1,0.45,1,1S9.55,6,9,6S8,5.55,8,5S8.45,4,9,4z M20,19H4v-2h16V19z M20,14H4V8h5.08L7,10.83L8.62,12L12,7.4l3.38,4.6
		L17,10.83L14.92,8H20V14z"/>
</g>
<g id="Duotone" display="none">
	<g id="ui_x5F_spec_x5F_header_copy_2" display="inline">
	</g>
	<g display="inline">
		<rect x="4" y="17" opacity="0.3" width="16" height="2"/>
		<polygon opacity="0.3" points="17,10.83 15.38,12 12,7.4 8.62,12 7,10.83 9.08,8 4,8 4,14 20,14 20,8 14.92,8 		"/>
		<path d="M20,6h-2.18C17.93,5.69,18,5.35,18,5c0-1.66-1.34-3-3-3c-1.05,0-1.96,0.54-2.5,1.35L12,4.02l-0.5-0.68
			C10.96,2.54,10.05,2,9,2C7.34,2,6,3.34,6,5c0,0.35,0.07,0.69,0.18,1H4C2.89,6,2.01,6.89,2.01,8L2,19c0,1.11,0.89,2,2,2h16
			c1.11,0,2-0.89,2-2V8C22,6.89,21.11,6,20,6z M15,4c0.55,0,1,0.45,1,1s-0.45,1-1,1s-1-0.45-1-1S14.45,4,15,4z M9,4
			c0.55,0,1,0.45,1,1S9.55,6,9,6S8,5.55,8,5S8.45,4,9,4z M20,19H4v-2h16V19z M20,14H4V8h5.08L7,10.83L8.62,12L12,7.4l3.38,4.6
			L17,10.83L14.92,8H20V14z"/>
	</g>
</g>
<g id="Fill" display="none">
	<g id="ui_x5F_spec_x5F_header_copy" display="inline">
	</g>
	<path display="inline" d="M20,6h-2.18C17.93,5.69,18,5.35,18,5c0-1.66-1.34-3-3-3c-1.05,0-1.96,0.54-2.5,1.35L12,4.02l-0.5-0.68
		C10.96,2.54,10.05,2,9,2C7.34,2,6,3.34,6,5c0,0.35,0.07,0.69,0.18,1H4C2.89,6,2.01,6.89,2.01,8L2,19c0,1.11,0.89,2,2,2h16
		c1.11,0,2-0.89,2-2V8C22,6.89,21.11,6,20,6z M15,4c0.55,0,1,0.45,1,1s-0.45,1-1,1s-1-0.45-1-1S14.45,4,15,4z M9,4
		c0.55,0,1,0.45,1,1S9.55,6,9,6S8,5.55,8,5S8.45,4,9,4z M20,19H4v-2h16V19z M20,14H4V8h5.08L7,10.83L8.62,12L12,7.4l3.38,4.6
		L17,10.83L14.92,8H20V14z"/>
</g>
<g id="nyt_x5F_exporter_x5F_info" display="none">
</g>
</svg>
